icons/ppc.svg

<!--
  - The MIT License (MIT)
  -
  - Copyright (c) 2015-2024 Elior "Mallowigi" Boukhobza
  -
  - Permission is hereby granted, free of charge, to any person obtaining a copy
  - of this software and associated documentation files (the "Software"), to deal
  - in the Software without restriction, including without limitation the rights
  - to use, copy, modify, merge, publish, distribute, sublicense, and/or sell
  - copies of the Software, and to permit persons to whom the Software is
  - furnished to do so, subject to the following conditions:
  -
  - The above copyright notice and this permission notice shall be included in all
  - copies or substantial portions of the Software.
  -
  - THE SOFTWARE IS PROVIDED "AS IS", WITHOUT WARRANTY OF ANY KIND, EXPRESS OR
  - IMPLIED, INCLUDING BUT NOT LIMITED TO THE WARRANTIES OF MERCHANTABILITY,
  - FITNESS FOR A PARTICULAR PURPOSE AND NONINFRINGEMENT. IN NO EVENT SHALL THE
  - AUTHORS OR COPYRIGHT HOLDERS BE LIABLE FOR ANY CLAIM, DAMAGES OR OTHER
  - LIABILITY, WHETHER IN AN ACTION OF CONTRACT, TORT OR OTHERWISE, ARISING FROM,
  - OUT OF OR IN CONNECTION WITH THE SOFTWARE OR THE USE OR OTHER DEALINGS IN THE
  - SOFTWARE.
  -
  -->

<svg  version="1.1" xmlns="http://www.w3.org/2000/svg" viewBox="0 0 512 512" width="16px" height="16px">
  <path fill="#c34e31" data-iconColor="PPC"
        d="M115.8550949,202.8218689L56.9807587,357.6006165H0l76.9190826-203.2074127h57.9213562c37.0362396,0,80.7124176,18.0385284,56.027771,78.8064423c-24.6846466,60.7741089-57.9213562,69.3199768-84.5119553,69.3199768h-18.038559l17.0917664-47.475708c18.9915161-0.9467926,28.4903641-18.9915161,31.3307419-27.5312042C142.8166504,210.0654755,137.0653229,201.6130219,115.8550949,202.8218689z M268.90979,202.8280487l-58.861969,154.7787628h-56.986969L229.97995,154.3993683h57.9275208c37.0300598,0,80.7124329,18.0385437,56.0215759,78.8064575c-24.6784363,60.7740936-57.9151611,69.3199615-84.5057678,69.3199615h-18.0447235l17.0917511-47.4756927c18.9976807-0.9467926,28.490387-18.9915161,31.3369141-27.5312195C294.7584839,212.3315277,292.8621521,201.3749695,268.90979,202.8280487z M345.9959106,254.1404419c-20.3776855,81.0527649,10.575592,103.460144,57.760498,103.460144h32.2836914l21.8380737-58.8743286h-38.9297791c-21.8380737,0-20.4271851-19.9444885-12.8219299-44.6291504L345.9959106,254.1404419z M409.6784363,244.1341553c9.703064-20.9779205,27.438446-41.3122864,51.0525208-41.3122864h34.1772766L512,154.3993683h-53.1687927c-30.9161682,0-85.8610535,6.5842285-110.1310425,89.7162323L409.6784363,244.1341553z"/>
</svg>

<svg xmlns="http://www.w3.org/2000/svg" viewBox="0 0 512 512"><path fill="#c34e31" d="M115.855 202.822 56.981 357.6H0l76.92-203.208h57.92c37.037 0 80.713 18.039 56.028 78.807-24.684 60.774-57.921 69.32-84.512 69.32H88.318l17.091-47.476c18.992-.947 28.49-18.992 31.331-27.531 6.077-17.448.325-25.9-20.885-24.691m153.055.006-58.862 154.779H153.06l76.919-203.208h57.927c37.03 0 80.713 18.039 56.022 78.807-24.678 60.774-57.915 69.32-84.506 69.32H241.38l17.091-47.476c18.998-.947 28.49-18.991 31.337-27.531 4.951-15.187 3.055-26.144-20.897-24.691m77.086 51.312c-20.378 81.053 10.576 103.46 57.76 103.46h32.284l21.838-58.874h-38.93c-21.838 0-20.427-19.944-12.822-44.629zm63.682-10.006c9.704-20.978 27.439-41.312 51.053-41.312h34.177L512 154.399h-53.169c-30.916 0-85.86 6.585-110.13 89.717z" data-iconColor="PPC"/></svg>
